X:15406
T:Sibirsk reisel\aa{}tt, polka (Jostein S\o{}rb\o{}en)
M:2/4
L:1/16
C:Hallingdal Kraftlag "Til Verket"
K:C
edcd e2ed|cde2-e4|fede f2e2|~d2c2 ~B2A2|\
Bcdc B2dc|Bcd2-d4|cded c2ed|cde2-e4|
edcd e2ed|cde2-e4|fede f2e2|~d2c2 ~B2A2|\
Bcdc B2dc|Bcd2-d4|cded c2~B2|A4-A2z2:|
|:cBAB c2c2|e2eg d2B2|c2dc B2cB|A2Bc A2A2|\
cBAB c2c2|e2eg d2B2|c2dc B2cB|.A2A2 A4:|
|:e2e2 e3g|e2d2 B4|cBAB c2cB|ABc2-c4|\
e2e2 e3g|e2d2 B4|cBAB c2cB|A4-A2z2:|


